src/epub/images/titlepage.svg

<?xml version="1.0" encoding="utf-8"?>
<svg xmlns="http://www.w3.org/2000/svg" xmlns:svg="http://www.w3.org/2000/svg" version="1.1" viewBox="0 0 1400 440">
	<title>The titlepage for the Standard Ebooks edition of The Wonderful Wizard of Oz, by L. Frank Baum</title>
	<g aria-label="THE WONDERFUL">
		<path d="m 257.73683,68.245613 h 18.33919 V 130 h 17.59064 V 68.245613 h 18.33918 V 52.807016 h -54.26901 z"/>
		<path d="m 340.93128,99.029239 h 24.88889 V 130 h 17.59064 V 52.807016 H 365.82017 V 83.590642 H 340.93128 V 52.807016 H 323.34064 V 130 h 17.59064 z"/>
		<path d="M 443.77631,52.807016 H 399.61257 V 130 h 44.16374 v -15.4386 h -26.5731 V 99.029239 h 25.4503 V 83.590642 h -25.4503 V 68.245613 h 26.5731 z"/>
		<path d="m 540.66082,130 h 19.46199 l 21.9883,-77.192984 H 562.64912 L 549.45614,105.76608 H 548.9883 L 534.95321,52.807016 h -13.28655 l -14.03508,52.959064 h -0.46784 L 493.97076,52.807016 H 474.4152 L 496.40351,130 h 19.55555 l 12.35088,-43.321638 z"/>
		<path d="m 584.94445,91.356724 c 0,22.549706 16.09357,40.046786 38.92398,40.046786 22.17544,0 38.83041,-17.49708 38.83041,-40.046786 0,-22.549708 -17.40351,-39.953217 -38.83041,-39.953217 -21.23977,0 -38.92398,17.403509 -38.92398,39.953217 z m 18.99415,0 c 0,-11.508772 6.36258,-23.017544 19.92983,-23.017544 13.66082,0 19.83626,11.508772 19.83626,23.017544 0,11.508776 -5.80117,23.017546 -19.83626,23.017546 -14.40936,0 -19.92983,-11.50877 -19.92983,-23.017546 z"/>
		<path d="m 693.05116,82.093566 h 0.18713 L 723.92835,130 H 741.519 V 52.807016 h -17.59065 v 47.906434 h -0.18713 L 693.05116,52.807016 H 675.46052 V 130 h 17.59064 z"/>
		<path d="M 757.76316,52.807016 V 130 h 22.36257 c 21.23977,0 38.92398,-16.09357 38.92398,-38.643276 0,-22.45614 -17.77778,-38.549708 -38.92398,-38.549708 z M 775.3538,114.2807 V 68.526315 h 2.71345 c 13.09942,0 21.98831,10.011696 21.98831,22.923977 -0.0936,12.912278 -8.98246,22.830408 -21.98831,22.830408 z"/>
		<path d="M 876.00588,52.807016 H 831.84214 V 130 h 44.16374 v -15.4386 h -26.5731 V 99.029239 h 25.4503 V 83.590642 h -25.4503 V 68.245613 h 26.5731 z"/>
		<path d="M 891.11845,52.807016 V 130 h 17.59064 V 99.497075 L 932.28804,130 h 22.36257 l -26.5731,-31.906433 c 9.45029,-2.994152 15.81287,-10.760234 15.81287,-22.362574 0,-15.157895 -10.85381,-22.923977 -25.1696,-22.923977 z m 17.59064,34.245615 V 66.842104 h 2.05848 c 6.64327,0 14.59649,0.467836 14.59649,10.105263 0,9.637428 -7.95322,10.105264 -14.59649,10.105264 z"/>
		<path d="M 1007.8188,52.807016 H 963.18717 V 130 h 17.59064 V 99.029239 h 24.98249 V 83.590642 H 980.77781 V 68.245613 h 27.04099 z"/>
		<path d="m 1080.5059,52.807016 h -17.5907 v 44.63158 c 0,12.912284 -3.9298,16.654974 -12.538,16.654974 -8.6082,0 -12.538,-3.74269 -12.538,-16.654974 v -44.63158 h -17.5906 v 49.777774 c 0,19.08772 10.4795,28.81872 30.1286,28.81872 19.6491,0 30.1287,-9.731 30.1287,-28.81872 z"/>
		<path d="m 1113.4021,52.807016 h -17.5907 V 130 h 44.1638 v -15.4386 h -26.5731 z"/>
	</g>
	<g aria-label="WIZARD OF OZ">
		<path d="m 359.60087,230 h 19.46199 l 21.9883,-77.19298 h -19.46198 l -13.19299,52.95906 h -0.46783 l -14.03509,-52.95906 h -13.28655 l -14.03509,52.95906 H 326.1038 L 312.91081,152.80702 H 293.35526 L 315.34356,230 h 19.55556 l 12.35087,-43.32164 z"/>
		<path d="M 427.8611,152.80702 H 410.27046 V 230 h 17.59064 z"/>
		<path d="m 508.98683,152.80702 h -63.53216 v 15.43859 h 32.74854 L 440.02777,230 h 66.43275 v -15.4386 h -35.74269 z"/>
		<path d="M 560.35234,152.80702 H 544.07163 L 512.91374,230 h 18.90058 l 5.70761,-15.4386 h 29.38011 L 572.60965,230 h 18.90058 z m 0.5614,46.31579 h -17.40351 l 8.60819,-22.45614 h 0.18713 z"/>
		<path d="M 599.42981,152.80702 V 230 h 17.59064 V 199.49708 L 640.5994,230 h 22.36257 l -26.5731,-31.90643 c 9.45029,-2.99416 15.81287,-10.76024 15.81287,-22.36258 0,-15.15789 -10.8538,-22.92397 -25.16959,-22.92397 z m 17.59064,34.24561 V 166.8421 h 2.05848 c 6.64328,0 14.59649,0.46784 14.59649,10.10527 0,9.63742 -7.95321,10.10526 -14.59649,10.10526 z"/>
		<path d="M 671.49853,152.80702 V 230 h 22.36258 c 21.23976,0 38.92397,-16.09357 38.92397,-38.64328 0,-22.45614 -17.77777,-38.5497 -38.92397,-38.5497 z m 17.59065,61.47368 v -45.75439 h 2.71345 c 13.09941,0 21.9883,10.0117 21.9883,22.92398 -0.0936,12.91228 -8.98246,22.83041 -21.9883,22.83041 z"/>
		<path d="m 772.7003,191.35672 c 0,22.54971 16.09357,40.04679 38.92398,40.04679 22.17544,0 38.83041,-17.49708 38.83041,-40.04679 0,-22.5497 -17.40351,-39.95321 -38.83041,-39.95321 -21.23977,0 -38.92398,17.40351 -38.92398,39.95321 z m 18.99415,0 c 0,-11.50877 6.36258,-23.01754 19.92983,-23.01754 13.66082,0 19.83626,11.50877 19.83626,23.01754 0,11.50878 -5.80117,23.01755 -19.83626,23.01755 -14.40936,0 -19.92983,-11.50877 -19.92983,-23.01755 z"/>
		<path d="M 907.84795,152.80702 H 863.21637 V 230 h 17.59064 v -30.97076 h 24.98246 v -15.4386 h -24.98246 v -15.34503 h 27.04094 z"/>
		<path d="m 948.33623,191.35672 c 0,22.54971 16.09356,40.04679 38.92397,40.04679 22.1754,0 38.8304,-17.49708 38.8304,-40.04679 0,-22.5497 -17.4035,-39.95321 -38.8304,-39.95321 -21.23976,0 -38.92397,17.40351 -38.92397,39.95321 z m 18.99415,0 c 0,-11.50877 6.36257,-23.01754 19.92982,-23.01754 13.6608,0 19.8363,11.50877 19.8363,23.01754 0,11.50878 -5.8012,23.01755 -19.8363,23.01755 -14.40935,0 -19.92982,-11.50877 -19.92982,-23.01755 z"/>
		<path d="m 1103.6945,152.80702 h -63.5322 v 15.43859 h 32.7485 L 1034.7354,230 h 66.4327 v -15.4386 h -35.7426 z"/>
	</g>
	<g aria-label="L. FRANK BAUM">
		<path d="M 397.58717,332.10526 H 384.39419 V 390 H 417.517 v -11.57895 h -19.92983 z"/>
		<path d="m 437.00494,374.98246 c -4.42106,0 -8,3.57894 -8,8.07017 0,4.42105 3.57894,8 8,8 4.49122,0 8.07017,-3.57895 8.07017,-8 0,-4.49123 -3.57895,-8.07017 -8.07017,-8.07017 z"/>
		<path d="M 516.2012,332.10526 H 482.72752 V 390 h 13.19298 v -23.22807 h 18.73684 V 355.19298 H 495.9205 v -11.50877 h 20.2807 z"/>
		<path d="M 527.47534,332.10526 V 390 h 13.19298 V 367.12281 L 558.35253,390 h 16.77193 l -19.92982,-23.92982 c 7.08771,-2.24562 11.85964,-8.07018 11.85964,-16.77193 0,-11.36842 -8.14035,-17.19299 -18.87719,-17.19299 z m 13.19298,25.68421 v -15.15789 h 1.54386 c 4.98246,0 10.94737,0.35088 10.94737,7.57895 0,7.22807 -5.96491,7.57894 -10.94737,7.57894 z"/>
		<path d="M 612.18037,332.10526 H 599.96985 L 576.60143,390 h 14.17544 l 4.2807,-11.57895 h 22.03509 L 621.37336,390 h 14.17544 z m 0.42106,34.73685 H 599.5488 L 606.00494,350 h 0.14035 z"/>
		<path d="m 655.93147,354.07018 h 0.14035 L 679.08937,390 h 13.19298 v -57.89474 h -13.19298 v 35.92983 h -0.14035 L 655.93147,332.10526 H 642.73849 V 390 h 13.19298 z"/>
		<path d="m 758.4172,390 -26.94736,-30.45614 23.29824,-27.4386 h -16 l -19.85965,23.64913 V 332.10526 H 705.71545 V 390 h 13.19298 V 365.4386 L 740.24177,390 Z"/>
		<path d="M 790.1398,332.10526 V 390 h 21.96491 c 12,0 18.94737,-6.59649 18.94737,-16.14035 0,-9.33333 -5.12281,-13.33333 -12.35088,-14.59649 4.91228,-2.52632 7.22807,-7.08772 7.22807,-12.42105 0,-11.01755 -7.85965,-14.73685 -17.82456,-14.73685 z m 13.19298,22.66667 V 342.2807 h 1.05263 c 5.75439,0 8.77193,1.75439 8.77193,5.89474 0,4.8421 -3.08772,6.59649 -8.77193,6.59649 z m 0,25.05263 v -13.68421 h 4.14035 c 6.24561,0 9.68421,1.89474 9.68421,7.22807 0,4.5614 -3.4386,6.45614 -9.68421,6.45614 z"/>
		<path d="M 869.91065,332.10526 H 857.70012 L 834.3317,390 h 14.17544 l 4.2807,-11.57895 h 22.03509 L 879.10363,390 h 14.17544 z m 0.42105,34.73685 H 857.27907 L 863.73521,350 h 0.14035 z"/>
		<path d="m 944.96,332.10526 h -13.19298 v 33.47369 c 0,9.68421 -2.94737,12.49123 -9.40351,12.49123 -6.45614,0 -9.40351,-2.80702 -9.40351,-12.49123 v -33.47369 h -13.19298 v 37.33334 c 0,14.31579 7.85965,21.61403 22.59649,21.61403 14.73684,0 22.59649,-7.29824 22.59649,-21.61403 z"/>
		<path d="m 1005.5488,390 h 13.193 l -5.193,-57.89474 h -14.03506 l -12.84211,33.40351 -12.84211,-33.40351 H 959.79444 L 954.60145,390 h 13.19299 l 2.73684,-34.31579 h 0.35088 l 11.85965,33.96491 h 7.85964 l 11.85965,-33.96491 h 0.3509 z"/>
	</g>
</svg>

<?xml version="1.0" encoding="utf-8"?>
<svg xmlns="http://www.w3.org/2000/svg" xmlns:svg="http://www.w3.org/2000/svg" version="1.1" viewBox="0 0 1400 440">
	<title>The titlepage for the Standard Ebooks edition of The Wonderful Wizard of Oz, by L. Frank Baum</title>
	<g>
		<path d="m 257.73683,68.245613 18.33919,0 0,61.754387 17.59064,0 0,-61.754387 18.33918,0 0,-15.438597 -54.26901,0 0,15.438597 z"/>
		<path d="m 340.93128,99.029239 24.88889,0 0,30.970761 17.59064,0 0,-77.192984 -17.59064,0 0,30.783626 -24.88889,0 0,-30.783626 -17.59064,0 0,77.192984 17.59064,0 0,-30.970761 z"/>
		<path d="m 443.77631,52.807016 -44.16374,0 0,77.192984 44.16374,0 0,-15.4386 -26.5731,0 0,-15.532161 25.4503,0 0,-15.438597 -25.4503,0 0,-15.345029 26.5731,0 0,-15.438597 z"/>
		<path d="m 540.66082,130 19.46199,0 21.9883,-77.192984 -19.46199,0 -13.19298,52.959064 -0.46784,0 -14.03509,-52.959064 -13.28655,0 -14.03508,52.959064 -0.46784,0 -13.19298,-52.959064 -19.55556,0 L 496.40351,130 515.95906,130 528.30994,86.678362 540.66082,130 Z"/>
		<path d="m 584.94445,91.356724 c 0,22.549706 16.09357,40.046786 38.92398,40.046786 22.17544,0 38.83041,-17.49708 38.83041,-40.046786 0,-22.549708 -17.40351,-39.953217 -38.83041,-39.953217 -21.23977,0 -38.92398,17.403509 -38.92398,39.953217 z m 18.99415,0 c 0,-11.508772 6.36258,-23.017544 19.92983,-23.017544 13.66082,0 19.83626,11.508772 19.83626,23.017544 0,11.508776 -5.80117,23.017546 -19.83626,23.017546 -14.40936,0 -19.92983,-11.50877 -19.92983,-23.017546 z"/>
		<path d="m 693.05116,82.093566 0.18713,0 L 723.92835,130 l 17.59065,0 0,-77.192984 -17.59065,0 0,47.906434 -0.18713,0 -30.69006,-47.906434 -17.59064,0 0,77.192984 17.59064,0 0,-47.906434 z"/>
		<path d="m 757.76316,52.807016 0,77.192984 22.36257,0 c 21.23977,0 38.92398,-16.09357 38.92398,-38.643276 0,-22.45614 -17.77778,-38.549708 -38.92398,-38.549708 l -22.36257,0 z m 17.59064,61.473684 0,-45.754385 2.71345,0 c 13.09942,0 21.98831,10.011696 21.98831,22.923977 -0.0936,12.912278 -8.98246,22.830408 -21.98831,22.830408 l -2.71345,0 z"/>
		<path d="m 876.00588,52.807016 -44.16374,0 0,77.192984 44.16374,0 0,-15.4386 -26.5731,0 0,-15.532161 25.4503,0 0,-15.438597 -25.4503,0 0,-15.345029 26.5731,0 0,-15.438597 z"/>
		<path d="m 891.11845,52.807016 0,77.192984 17.59064,0 0,-30.502925 L 932.28804,130 l 22.36257,0 -26.5731,-31.906433 c 9.45029,-2.994152 15.81287,-10.760234 15.81287,-22.362574 0,-15.157895 -10.85381,-22.923977 -25.1696,-22.923977 l -27.60233,0 z m 17.59064,34.245615 0,-20.210527 2.05848,0 c 6.64327,0 14.59649,0.467836 14.59649,10.105263 0,9.637428 -7.95322,10.105264 -14.59649,10.105264 l -2.05848,0 z"/>
		<path d="m 1007.8188,52.807016 -44.63163,0 0,77.192984 17.59064,0 0,-30.970761 24.98249,0 0,-15.438597 -24.98249,0 0,-15.345029 27.04099,0 0,-15.438597 z"/>
		<path d="m 1080.5059,52.807016 -17.5907,0 0,44.63158 c 0,12.912284 -3.9298,16.654974 -12.538,16.654974 -8.6082,0 -12.538,-3.74269 -12.538,-16.654974 l 0,-44.63158 -17.5906,0 0,49.777774 c 0,19.08772 10.4795,28.81872 30.1286,28.81872 19.6491,0 30.1287,-9.731 30.1287,-28.81872 l 0,-49.777774 z"/>
		<path d="m 1113.4021,52.807016 -17.5907,0 0,77.192984 44.1638,0 0,-15.4386 -26.5731,0 0,-61.754384 z"/>
	</g>
	<g>
		<path d="m 359.60087,230 19.46199,0 21.9883,-77.19298 -19.46198,0 -13.19299,52.95906 -0.46783,0 -14.03509,-52.95906 -13.28655,0 -14.03509,52.95906 -0.46783,0 -13.19299,-52.95906 -19.55555,0 21.9883,77.19298 19.55556,0 12.35087,-43.32164 L 359.60087,230 Z"/>
		<path d="m 427.8611,152.80702 -17.59064,0 0,77.19298 17.59064,0 0,-77.19298 z"/>
		<path d="m 508.98683,152.80702 -63.53216,0 0,15.43859 32.74854,0 L 440.02777,230 l 66.43275,0 0,-15.4386 -35.74269,0 38.269,-61.75438 z"/>
		<path d="m 560.35234,152.80702 -16.28071,0 L 512.91374,230 l 18.90058,0 5.70761,-15.4386 29.38011,0 5.70761,15.4386 18.90058,0 -31.15789,-77.19298 z m 0.5614,46.31579 -17.40351,0 8.60819,-22.45614 0.18713,0 8.60819,22.45614 z"/>
		<path d="m 599.42981,152.80702 0,77.19298 17.59064,0 0,-30.50292 L 640.5994,230 l 22.36257,0 -26.5731,-31.90643 c 9.45029,-2.99416 15.81287,-10.76024 15.81287,-22.36258 0,-15.15789 -10.8538,-22.92397 -25.16959,-22.92397 l -27.60234,0 z m 17.59064,34.24561 0,-20.21053 2.05848,0 c 6.64328,0 14.59649,0.46784 14.59649,10.10527 0,9.63742 -7.95321,10.10526 -14.59649,10.10526 l -2.05848,0 z"/>
		<path d="m 671.49853,152.80702 0,77.19298 22.36258,0 c 21.23976,0 38.92397,-16.09357 38.92397,-38.64328 0,-22.45614 -17.77777,-38.5497 -38.92397,-38.5497 l -22.36258,0 z m 17.59065,61.47368 0,-45.75439 2.71345,0 c 13.09941,0 21.9883,10.0117 21.9883,22.92398 -0.0936,12.91228 -8.98246,22.83041 -21.9883,22.83041 l -2.71345,0 z"/>
		<path d="m 772.7003,191.35672 c 0,22.54971 16.09357,40.04679 38.92398,40.04679 22.17544,0 38.83041,-17.49708 38.83041,-40.04679 0,-22.5497 -17.40351,-39.95321 -38.83041,-39.95321 -21.23977,0 -38.92398,17.40351 -38.92398,39.95321 z m 18.99415,0 c 0,-11.50877 6.36258,-23.01754 19.92983,-23.01754 13.66082,0 19.83626,11.50877 19.83626,23.01754 0,11.50878 -5.80117,23.01755 -19.83626,23.01755 -14.40936,0 -19.92983,-11.50877 -19.92983,-23.01755 z"/>
		<path d="m 907.84795,152.80702 -44.63158,0 0,77.19298 17.59064,0 0,-30.97076 24.98246,0 0,-15.4386 -24.98246,0 0,-15.34503 27.04094,0 0,-15.43859 z"/>
		<path d="m 948.33623,191.35672 c 0,22.54971 16.09356,40.04679 38.92397,40.04679 22.1754,0 38.8304,-17.49708 38.8304,-40.04679 0,-22.5497 -17.4035,-39.95321 -38.8304,-39.95321 -21.23976,0 -38.92397,17.40351 -38.92397,39.95321 z m 18.99415,0 c 0,-11.50877 6.36257,-23.01754 19.92982,-23.01754 13.6608,0 19.8363,11.50877 19.8363,23.01754 0,11.50878 -5.8012,23.01755 -19.8363,23.01755 -14.40935,0 -19.92982,-11.50877 -19.92982,-23.01755 z"/>
		<path d="m 1103.6945,152.80702 -63.5322,0 0,15.43859 32.7485,0 -38.1754,61.75439 66.4327,0 0,-15.4386 -35.7426,0 38.269,-61.75438 z"/>
	</g>
	<g>
		<path d="m 397.58717,332.10526 -13.19298,0 0,57.89474 33.12281,0 0,-11.57895 -19.92983,0 0,-46.31579 z"/>
		<path d="m 437.00494,374.98246 c -4.42106,0 -8,3.57894 -8,8.07017 0,4.42105 3.57894,8 8,8 4.49122,0 8.07017,-3.57895 8.07017,-8 0,-4.49123 -3.57895,-8.07017 -8.07017,-8.07017 z"/>
		<path d="m 516.2012,332.10526 -33.47368,0 0,57.89474 13.19298,0 0,-23.22807 18.73684,0 0,-11.57895 -18.73684,0 0,-11.50877 20.2807,0 0,-11.57895 z"/>
		<path d="m 527.47534,332.10526 0,57.89474 13.19298,0 0,-22.87719 17.68421,22.87719 16.77193,0 -19.92982,-23.92982 c 7.08771,-2.24562 11.85964,-8.07018 11.85964,-16.77193 0,-11.36842 -8.14035,-17.19299 -18.87719,-17.19299 l -20.70175,0 z m 13.19298,25.68421 0,-15.15789 1.54386,0 c 4.98246,0 10.94737,0.35088 10.94737,7.57895 0,7.22807 -5.96491,7.57894 -10.94737,7.57894 l -1.54386,0 z"/>
		<path d="m 612.18037,332.10526 -12.21052,0 L 576.60143,390 l 14.17544,0 4.2807,-11.57895 22.03509,0 4.2807,11.57895 14.17544,0 -23.36843,-57.89474 z m 0.42106,34.73685 -13.05263,0 6.45614,-16.84211 0.14035,0 6.45614,16.84211 z"/>
		<path d="m 655.93147,354.07018 0.14035,0 23.01755,35.92982 13.19298,0 0,-57.89474 -13.19298,0 0,35.92983 -0.14035,0 -23.01755,-35.92983 -13.19298,0 0,57.89474 13.19298,0 0,-35.92982 z"/>
		<path d="m 758.4172,390 -26.94736,-30.45614 23.29824,-27.4386 -16,0 -19.85965,23.64913 0,-23.64913 -13.19298,0 0,57.89474 13.19298,0 0,-24.5614 21.33334,24.5614 18.17543,0 z"/>
		<path d="m 790.1398,332.10526 0,57.89474 21.96491,0 c 12,0 18.94737,-6.59649 18.94737,-16.14035 0,-9.33333 -5.12281,-13.33333 -12.35088,-14.59649 4.91228,-2.52632 7.22807,-7.08772 7.22807,-12.42105 0,-11.01755 -7.85965,-14.73685 -17.82456,-14.73685 l -17.96491,0 z m 13.19298,22.66667 0,-12.49123 1.05263,0 c 5.75439,0 8.77193,1.75439 8.77193,5.89474 0,4.8421 -3.08772,6.59649 -8.77193,6.59649 l -1.05263,0 z m 0,25.05263 0,-13.68421 4.14035,0 c 6.24561,0 9.68421,1.89474 9.68421,7.22807 0,4.5614 -3.4386,6.45614 -9.68421,6.45614 l -4.14035,0 z"/>
		<path d="m 869.91065,332.10526 -12.21053,0 L 834.3317,390 l 14.17544,0 4.2807,-11.57895 22.03509,0 4.2807,11.57895 14.17544,0 -23.36842,-57.89474 z m 0.42105,34.73685 -13.05263,0 6.45614,-16.84211 0.14035,0 6.45614,16.84211 z"/>
		<path d="m 944.96,332.10526 -13.19298,0 0,33.47369 c 0,9.68421 -2.94737,12.49123 -9.40351,12.49123 -6.45614,0 -9.40351,-2.80702 -9.40351,-12.49123 l 0,-33.47369 -13.19298,0 0,37.33334 c 0,14.31579 7.85965,21.61403 22.59649,21.61403 14.73684,0 22.59649,-7.29824 22.59649,-21.61403 l 0,-37.33334 z"/>
		<path d="m 1005.5488,390 13.193,0 -5.193,-57.89474 -14.03506,0 -12.84211,33.40351 -12.84211,-33.40351 -14.03508,0 -5.19299,57.89474 13.19299,0 2.73684,-34.31579 0.35088,0 11.85965,33.96491 7.85964,0 11.85965,-33.96491 0.3509,0 2.7368,34.31579 z"/>
	</g>
</svg>
